X: 30245
T: Old John's
R: jig
M: 6/8
K: Adorian
|:cBA cBA|G2G GAB|cAG A2G|Add ded|
cBA cBA|G2G GAB|cde ged|1 cAG A2 B:|2 cAG A3||
|:efg eaa|ged cAA|efg eaa|bag a2e|
efg eaa|ged cAA|cde ged|cAG A3:|

